!!!OTL: 480. Thekla. / [Eine Geisterstimme.]
!!!COM: Fr. Ludw. Seidel
!!!ODT: 1805
!!!ARE: Europa, Mitteleuropa, Deutschland
!!!SCT: B0480
!!!TXL: @@DE
!!!YEM: Copyright 1995, estate of Helmut Schaffrath.
**kern	**text
*ICvox	*
*Ivox	*
*clefG2	*
*M4/4	*
*met(c)	*
*k[f#]	*
*G:	*
!LO:TX:a:t=Langſam und mit Ausdruck.	!
{8d	Wo
8d	ich
=1	=1
4.g	ſei
8g	und
8f#	wo
8g	mich
8cc	hin-
8b	-ge-
=2	=2
8g#L	-wen-
8aJ	.
4a	-det,
4r}	.
{8d	als
8d	mein
=3	=3
4.b	flücht'-
8g	-ger
8e	Schatten
8e	.
8a	dir
8g	ent-
=4	=4
(4gqq	.
2f#)	-ſchwebt?
4r}	.
{8cc	Hab'
8a	ich
=5	=5
(8gqq	.
4.f#)	nicht
8a	beſchloſſen
8dd	.
8cc	.
8b	und
8a	ge-
=6	=6
8.aL	-en-
16gJ	.
4g	-det?
4r}	.
{8dd	Hab'
8b	ich
=7	=7
(8aqq	.
4.g#)	nicht
8b	ge-
8ee	-lie-
8dd	-bet
8cc	und
8b	ge-
=8	=8
(4ddqq	.
2cc)}	-lebt?
{4.dd	Hab'
8cc	ich
=9	=9
(16ccqq	.
8b)	nicht
16aL	ge-
16bJ	.
16ddL	-lie-
16ccJ	.
16bL	-bet
16aJ	.
(>4g	und
16bq	.
8.a)	.
16g	ge-
=10	=10
2g	-lebt?
4r}	.
==	==
!!!AGN: Liebes - Lied, Leid, Klage, Tod
!!!GTL: Liebeslieder - Liebesleid
!!!ONB: ESAC (Essen Associative Code) Database: BOEHME
!!!AMT: simple quadruple
!!!AIN: vox
!!!EED: Helmut Schaffrath
!!!EEV: 1.0
!!!RDF**kern: > = above
!!Fr. Ludw. Seidel. 1805. Hier nach einen handſchriftl. Ldb. 1810.
!!@@COMMENT:"Friedrich v. Schiller 1802. Ʒuerſt in Cotta's Taſchenb. für Damen auf das Jahr 1803. "
!!Die ſchöne, am meiſten geſungene Melodie von F. L. Seidel ſteht ʒuerſt in: "Erſte muſikaliſche
!!Beilage ʒum Freimüthigen". 1805. Original in Asdur mit Pianofortebegleitung. Jn handſchriftl.
!!Notenbüchern 1810 und ſpäter findet ſich dieſe Melodie durch Weglaſſen aller Vorhalte vereinfacht.
!!Beachtbar iſt letʒte Ʒeile über Bedeutung der Kinderſpiele."
!!@@END:
!!!Text: F. Schiller
!!!URL-scan: https://archive.org/details/BoehmeVtLieder1895/page/n385/mode/2up
!!!ENC: Anna Maria Matuszewska
!!!EEV: 2024/10/07
*-	*-
